Catalina-dark/actions/22/irc-remove-operator.svg

<svg xmlns="http://www.w3.org/2000/svg" viewBox="0 0 22 22">
  <defs id="defs3051">
    <style type="text/css" id="current-color-scheme">
      .ColorScheme-NegativeText {
        color:#da4453;
      }
      </style>
  </defs>
 <path 
     style="fill:currentColor;fill-opacity:1;stroke:none"      
	 class="ColorScheme-NegativeText"
        d="M 7.6523438 3 C 6.7979046 3 6.1035156 3.6947732 6.1035156 4.5488281 L 6.1035156 6.1035156 L 4.5488281 6.1035156 C 3.6947092 6.1035156 3 6.7979046 3 7.6523438 C 3 8.5063986 3.6947092 9.2011719 4.5488281 9.2011719 L 6.1035156 9.2011719 L 6.1035156 12.798828 L 4.5488281 12.798828 C 3.6947092 12.798828 3 13.493729 3 14.347656 C 3 15.201583 3.6947092 15.896484 4.5488281 15.896484 L 6.1035156 15.896484 L 6.1035156 17.451172 C 6.1035156 18.305739 6.7979046 19 7.6523438 19 C 8.5064626 19 9.2011719 18.305739 9.2011719 17.451172 L 9.2011719 15.896484 L 12.798828 15.896484 L 12.798828 17.451172 C 12.798828 18.305739 13.493729 19 14.347656 19 C 15.202031 19 15.896484 18.305739 15.896484 17.451172 L 15.896484 15.896484 L 17.451172 15.896484 C 18.305419 15.896484 19 15.201583 19 14.347656 C 19 13.493729 18.305355 12.798828 17.451172 12.798828 L 15.896484 12.798828 L 15.896484 9.2011719 L 17.451172 9.2011719 C 18.305035 9.2011719 19 8.5063986 19 7.6523438 C 19 6.7978405 18.305099 6.1035156 17.451172 6.1035156 L 15.896484 6.1035156 L 15.896484 4.5488281 C 15.896484 3.6947732 15.201711 3 14.347656 3 C 13.493089 3 12.798828 3.6947732 12.798828 4.5488281 L 12.798828 6.1035156 L 9.2011719 6.1035156 L 9.2011719 4.5488281 C 9.2011719 3.6947732 8.5064626 3 7.6523438 3 z M 8.5136719 8.5136719 L 13.486328 8.5136719 L 13.486328 13.486328 L 8.5136719 13.486328 L 8.5136719 8.5136719 z "
     />
</svg>

<svg viewBox="0 0 22 22" xmlns="http://www.w3.org/2000/svg">
<defs>
<style id="current-color-scheme" type="text/css">.ColorScheme-NegativeText {
        color:#da4453;
      }</style>
</defs>
<path class="ColorScheme-NegativeText" d="m7.6523 3c-0.85444 0-1.5488 0.69477-1.5488 1.5488v1.5547h-1.5547c-0.85412 0-1.5488 0.69439-1.5488 1.5488 0 0.85405 0.69471 1.5488 1.5488 1.5488h1.5547v3.5977h-1.5547c-0.85412 0-1.5488 0.6949-1.5488 1.5488s0.69471 1.5488 1.5488 1.5488h1.5547v1.5547c0 0.85457 0.69439 1.5488 1.5488 1.5488 0.85412 0 1.5488-0.69426 1.5488-1.5488v-1.5547h3.5977v1.5547c0 0.85457 0.6949 1.5488 1.5488 1.5488 0.85438 0 1.5488-0.69426 1.5488-1.5488v-1.5547h1.5547c0.85425 0 1.5488-0.6949 1.5488-1.5488s-0.69464-1.5488-1.5488-1.5488h-1.5547v-3.5977h1.5547c0.85386 0 1.5488-0.69477 1.5488-1.5488 0-0.8545-0.6949-1.5488-1.5488-1.5488h-1.5547v-1.5547c0-0.85405-0.69477-1.5488-1.5488-1.5488-0.85457 0-1.5488 0.69477-1.5488 1.5488v1.5547h-3.5977v-1.5547c0-0.85405-0.69471-1.5488-1.5488-1.5488zm0.86133 5.5137h4.9727v4.9727h-4.9727v-4.9727z" fill="currentColor"/>
</svg>
